assets/Person in motorized wheelchair/Medium-Light/Flat/person_in_motorized_wheelchair_flat_medium-light.svg

<svg width="32" height="32" viewBox="0 0 32 32" fill="none" xmlns="http://www.w3.org/2000/svg">
<path d="M12.9914 26.1681C12.9914 26.0237 12.8743 25.9067 12.73 25.9067C12.5856 25.9067 12.4686 26.0237 12.4686 26.1681V28.5581C12.4686 28.7024 12.5856 28.8195 12.73 28.8195C12.8743 28.8195 12.9914 28.7024 12.9914 28.5581V26.1681Z" fill="#635994"/>
<path d="M24.7514 26.1681C24.7514 26.0237 24.6343 25.9067 24.49 25.9067C24.3456 25.9067 24.2286 26.0237 24.2286 26.1681V28.5581C24.2286 28.7024 24.3456 28.8195 24.49 28.8195C24.6343 28.8195 24.7514 28.7024 24.7514 28.5581V26.1681Z" fill="#635994"/>
<path d="M24.4272 5.4095C24.4556 5.23434 24.3366 5.06932 24.1615 5.04093C23.9863 5.01254 23.8213 5.13152 23.7929 5.30668L23.1429 9.31668C23.1145 9.49185 23.2335 9.65686 23.4086 9.68525C23.5838 9.71365 23.7488 9.59467 23.7772 9.4195L24.4272 5.4095Z" fill="#321B41"/>
<path d="M6.14165 23.7197C5.98235 23.6415 5.78984 23.7073 5.71165 23.8666C5.63347 24.0258 5.69922 24.2184 5.85852 24.2965L9.66852 26.1665C9.71258 26.1882 9.761 26.1994 9.81008 26.1994H11.4201C11.5975 26.1994 11.7414 26.0556 11.7414 25.8781C11.7414 25.7007 11.5975 25.5568 11.4201 25.5568H9.88468L9.54352 25.3894L8.33984 24.1289L6.30981 23.8022L6.14165 23.7197Z" fill="#321B41"/>
<path d="M21.04 20.9181V21.9381L18.5628 22.4561L16.03 21.9381V20.9181L18.5628 20.2784L21.04 20.9181Z" fill="#CA0B4A"/>
<path d="M11.18 25.2181L14.67 23.2681V26.6481H11.56C11.14 26.6481 10.79 26.3081 10.79 25.8781C10.79 25.6081 10.94 25.3581 11.18 25.2181Z" fill="#CA0B4A"/>
<path d="M26.04 25.2181L22.55 23.2681V26.6481H25.66C26.08 26.6481 26.43 26.3081 26.43 25.8781C26.43 25.6081 26.28 25.3581 26.04 25.2181Z" fill="#CA0B4A"/>
<path d="M21.97 21.938H15.14C14.41 21.938 13.86 22.598 13.99 23.318L14.6 26.748C14.68 27.198 15.08 27.528 15.54 27.528H21.7C22.17 27.528 22.57 27.178 22.64 26.708L23.13 23.268C23.23 22.568 22.68 21.938 21.97 21.938Z" fill="#F92F60"/>
<path d="M18.53 24.9181C17.12 24.9181 15.97 26.0681 15.97 27.4781C15.97 28.8881 17.12 30.0381 18.53 30.0381C19.94 30.0381 21.09 28.8881 21.09 27.4781C21.09 26.0581 19.95 24.9181 18.53 24.9181Z" fill="#9B9B9B"/>
<path d="M23 28.5381C23 29.3581 23.67 30.0281 24.49 30.0281C25.31 30.0281 25.98 29.3581 25.98 28.5381C25.98 27.7181 25.31 27.0481 24.49 27.0481C23.67 27.0481 23 27.7181 23 28.5381Z" fill="#9B9B9B"/>
<path d="M11.24 28.5381C11.24 27.7181 11.91 27.0481 12.73 27.0481C13.55 27.0481 14.22 27.7181 14.22 28.5381C14.22 29.3581 13.55 30.0281 12.73 30.0281C11.91 30.0281 11.24 29.3581 11.24 28.5381Z" fill="#9B9B9B"/>
<path d="M18.53 28.9781C19.3585 28.9781 20.03 28.3066 20.03 27.4781C20.03 26.6497 19.3585 25.9781 18.53 25.9781C17.7016 25.9781 17.03 26.6497 17.03 27.4781C17.03 28.3066 17.7016 28.9781 18.53 28.9781Z" fill="#D3D3D3"/>
<path d="M24.4901 29.4181C24.9761 29.4181 25.3701 29.0241 25.3701 28.5381C25.3701 28.0521 24.9761 27.6581 24.4901 27.6581C24.0041 27.6581 23.6101 28.0521 23.6101 28.5381C23.6101 29.0241 24.0041 29.4181 24.4901 29.4181Z" fill="#D3D3D3"/>
<path d="M13.6101 28.5381C13.6101 29.0241 13.2161 29.4181 12.7301 29.4181C12.2441 29.4181 11.8501 29.0241 11.8501 28.5381C11.8501 28.0521 12.2441 27.6581 12.7301 27.6581C13.2161 27.6581 13.6101 28.0521 13.6101 28.5381Z" fill="#D3D3D3"/>
<path d="M18.5299 28.0781C18.8613 28.0781 19.1299 27.8094 19.1299 27.4781C19.1299 27.1467 18.8613 26.8781 18.5299 26.8781C18.1986 26.8781 17.9299 27.1467 17.9299 27.4781C17.9299 27.8094 18.1986 28.0781 18.5299 28.0781Z" fill="#1C1C1C"/>
<path d="M24.49 29.0181C24.7551 29.0181 24.97 28.8032 24.97 28.5381C24.97 28.273 24.7551 28.0581 24.49 28.0581C24.2249 28.0581 24.01 28.273 24.01 28.5381C24.01 28.8032 24.2249 29.0181 24.49 29.0181Z" fill="#1C1C1C"/>
<path d="M13.21 28.5381C13.21 28.8032 12.9951 29.0181 12.73 29.0181C12.4649 29.0181 12.25 28.8032 12.25 28.5381C12.25 28.273 12.4649 28.0581 12.73 28.0581C12.9951 28.0581 13.21 28.273 13.21 28.5381Z" fill="#1C1C1C"/>
<path d="M21.0498 6.85803L21.0998 8.81803L19.0998 8.87803L19.0698 6.89803L21.0498 6.85803Z" fill="#E4B29A"/>
<path d="M9.30005 22.9681L10.45 17.0881C10.66 16.0381 11.22 15.6481 11.96 15.5981L16.41 15.1581H21.05C21.05 15.1581 21.83 18.1581 20.68 18.1581L13.26 18.1681C13.04 18.1681 12.83 18.2981 12.75 18.5081L10.37 24.1881L9.35079 23.9484L9.30005 22.9681Z" fill="#9B9B9B"/>
<path d="M20.31 8.49806C19.06 8.28806 17.87 9.13806 17.66 10.3881L16.5 15.1681L20.58 18.1681L22.2 11.1481C22.41 9.88806 21.56 8.70806 20.31 8.49806Z" fill="#FF6723"/>
<path d="M15.4099 15.0481H14.8899V16.1481H15.4099V15.0481Z" fill="#321B41"/>
<path d="M15.15 15.298C15.4814 15.298 15.75 15.0294 15.75 14.698C15.75 14.3667 15.4814 14.098 15.15 14.098C14.8187 14.098 14.55 14.3667 14.55 14.698C14.55 15.0294 14.8187 15.298 15.15 15.298Z" fill="#433B6B"/>
<path d="M14.0299 13.568C13.8699 13.628 13.7999 13.808 13.8499 13.968L14.5508 13.7461L14.9099 13.188L14.0299 13.568Z" fill="#D6A089"/>
<path d="M21.39 10.1481L21.18 13.8681C21.15 14.3581 20.75 14.7481 20.27 14.7681L16.05 14.8081C15.76 14.8081 15.48 14.7681 15.21 14.6781L15.08 14.6381L14.5 14.8881C14.35 14.9481 14.17 14.9081 14.08 14.7681C14.05 14.7181 14.03 14.6681 14.03 14.6181C13.87 14.6881 13.67 14.6081 13.6 14.4381C13.53 14.2681 13.61 14.0781 13.78 14.0081L13.85 13.9681L14.9094 13.1883C15.1694 13.0683 16.02 12.9781 16.18 12.9781L19.26 12.8981C19.31 12.8981 19.36 12.8481 19.36 12.7981L19.52 10.0381C19.55 9.52808 19.99 9.12808 20.51 9.15808C21.02 9.18808 21.42 9.62808 21.39 10.1481Z" fill="#EEBFAA"/>
<path d="M21.31 12.588C21.4 12.598 21.48 12.518 21.49 12.428L21.6 9.98803C21.63 9.31803 21.11 8.74803 20.44 8.71803C19.77 8.68803 19.2 9.20803 19.17 9.87803L19.06 12.218C19.05 12.348 19.15 12.448 19.28 12.458C19.82 12.498 20.72 12.548 21.31 12.588Z" fill="#FF8101"/>
<path d="M10.3699 24.188L9.82989 25.288C9.76989 25.398 9.63989 25.448 9.52989 25.388L6.33989 23.818C6.04989 23.678 6.11989 23.248 6.43989 23.198L9.30989 22.968L10.3699 24.188Z" fill="#533566"/>
<path d="M18.7599 7.90802C19.4499 8.00802 20.5999 7.80802 21.0299 7.02802L21.4799 5.95802L21.9699 4.83802C22.0899 3.98802 21.4899 3.20802 20.6399 3.08802L19.6299 2.94802C18.7799 2.82802 17.9999 3.42802 17.8799 4.27802L17.7991 4.87742C17.6169 5.13001 17.4704 5.25783 17.3664 5.34857C17.2656 5.43661 17.2047 5.48974 17.1899 5.58808C17.1699 5.78808 17.3599 5.97808 17.5599 6.00808C17.5982 6.01382 17.627 6.01223 17.6486 6.00451C17.5312 7.00524 17.5861 7.75151 18.7599 7.90802Z" fill="#EEBFAA"/>
<path d="M18.1499 5.21806C18.0899 5.20806 18.0499 5.14806 18.0599 5.07806V5.06806C18.0999 4.78806 18.3699 4.65806 18.5999 4.68806C18.8299 4.71806 19.0599 4.90806 19.0199 5.19806V5.20806C19.0099 5.27806 18.9499 5.32806 18.8899 5.31806L18.1499 5.21806Z" fill="white"/>
<path d="M18.06 5.20799C18.05 5.16799 18.05 5.11799 18.06 5.07799C18.09 4.86799 18.24 4.72799 18.4 4.74799C18.56 4.76799 18.67 4.95799 18.64 5.15799C18.63 5.20799 18.62 5.24799 18.6 5.28799L18.06 5.20799Z" fill="#7D4533"/>
<path d="M18.1599 5.21805C18.1399 5.17805 18.1299 5.12805 18.1399 5.07805C18.1599 4.95805 18.2399 4.87805 18.3399 4.88805C18.4299 4.89805 18.4899 5.00805 18.4799 5.12805C18.4699 5.17805 18.4499 5.21805 18.4199 5.25805L18.1599 5.21805Z" fill="black"/>
<path d="M18.2831 4.95757C18.2884 4.91927 18.266 4.88459 18.2331 4.88012C18.2003 4.87564 18.1695 4.90307 18.1642 4.94137C18.159 4.97968 18.1814 5.01435 18.2142 5.01883C18.2471 5.0233 18.2779 4.99588 18.2831 4.95757Z" fill="white"/>
<path d="M18.6049 6.20395C18.6569 6.22879 18.6789 6.29104 18.654 6.34298C18.5177 6.628 18.1738 6.73539 17.895 6.60205C17.843 6.57721 17.8211 6.51496 17.8459 6.46302C17.8708 6.41108 17.933 6.38911 17.9849 6.41395C18.1661 6.50061 18.3822 6.428 18.4659 6.25302C18.4908 6.20108 18.553 6.17911 18.6049 6.20395Z" fill="#990838"/>
<path d="M19.04 4.55066C19.0255 4.55058 19.0111 4.54763 18.9977 4.54196C18.9843 4.5363 18.9722 4.52804 18.962 4.51766C18.8014 4.38069 18.5981 4.30395 18.387 4.30066C18.3725 4.30027 18.3581 4.29701 18.3448 4.29107C18.3315 4.28513 18.3194 4.27662 18.3094 4.26604C18.2994 4.25545 18.2915 4.24299 18.2863 4.22937C18.2811 4.21575 18.2786 4.20123 18.279 4.18666C18.2775 4.17153 18.2795 4.15624 18.2847 4.14198C18.29 4.12771 18.2984 4.11483 18.3094 4.10432C18.3204 4.09381 18.3337 4.08595 18.3482 4.08133C18.3626 4.07671 18.378 4.07545 18.393 4.07766C18.6613 4.08125 18.9191 4.18177 19.119 4.36066C19.1396 4.3816 19.1512 4.40979 19.1512 4.43916C19.1512 4.46852 19.1396 4.49671 19.119 4.51766C19.1087 4.52811 19.0964 4.53641 19.0828 4.54208C19.0693 4.54774 19.0547 4.55066 19.04 4.55066V4.55066Z" fill="#A56953"/>
<path d="M19.951 4.35229C19.9657 4.23516 19.9327 4.1228 19.8671 4.03496C19.7297 3.98548 19.5656 3.94495 19.3698 3.91805C19.093 3.88063 18.8696 3.82642 18.6917 3.75634L17.911 3.66229C17.891 3.65229 17.881 3.65229 17.871 3.65229C17.511 3.58229 17.261 3.24229 17.291 2.88229C17.321 2.46229 17.701 2.15229 18.111 2.20229C18.231 2.21229 18.351 2.16229 18.431 2.07229C18.591 1.89229 18.841 1.79229 19.101 1.82229C19.201 1.83229 19.301 1.86229 19.391 1.90229C19.631 2.03229 19.911 2.06229 20.171 1.99229C20.271 1.97229 20.371 1.96229 20.481 1.97229C20.611 1.99229 20.741 2.04229 20.841 2.11229C20.991 2.22229 21.171 2.28229 21.351 2.29229C21.461 2.30229 21.561 2.32229 21.671 2.35229C21.6931 2.35904 21.7147 2.36631 21.7359 2.37409C22.4565 2.57516 23.0442 3.11533 22.8998 4.19805C22.5898 6.46805 21.7698 6.36805 21.7698 6.36805C22.4098 6.45805 22.2198 7.27805 21.7398 7.20805C21.7036 7.2043 21.6618 7.20243 21.6165 7.2004C21.2993 7.18618 20.8136 7.1644 20.9098 6.43805C20.9159 6.39379 20.9213 6.35079 20.9262 6.30902C20.7844 6.24396 20.6497 6.13245 20.5863 5.98773C20.7606 5.89489 20.8913 5.72116 20.9218 5.51403C20.9649 5.22051 20.792 4.94189 20.5187 4.83903C20.4734 4.7979 20.4158 4.76991 20.351 4.76229L20.251 4.75229C20.061 4.72229 19.921 4.54229 19.951 4.35229Z" fill="#FFF9BA"/>
<path d="M22.6799 5.38809L22.9199 3.89809C23.0299 3.18809 23.6399 2.66809 24.3599 2.66809C25.2599 2.66809 25.9399 3.46809 25.7999 4.34809L25.5599 5.83809C25.4399 6.54809 24.8399 7.06809 24.1199 7.06809C23.2199 7.06809 22.5399 6.26809 22.6799 5.38809Z" fill="#433B6B"/>
<path d="M23.4501 8.02808C22.7301 8.02808 22.1301 8.54808 22.0101 9.25808L20.5797 18.1581H16.3125L15.2148 17.3672L13.9844 18.1581H13.25C12.96 18.1581 12.73 18.3881 12.73 18.6781V20.4081C12.73 20.6981 12.96 20.9281 13.25 20.9281H24.05C24.34 20.9281 24.57 20.6981 24.57 20.4081V18.6781C24.57 18.3981 24.34 18.1581 24.05 18.1581H23.5297L23.7958 16.5072L23.3646 15.642L24.0716 14.7963L24.8901 9.71808C25.0301 8.82808 24.3401 8.02808 23.4501 8.02808Z" fill="#433B6B"/>
<path d="M15.1501 17.5781C15.614 17.5781 15.9901 17.202 15.9901 16.7381C15.9901 16.2742 15.614 15.8981 15.1501 15.8981C14.6861 15.8981 14.3101 16.2742 14.3101 16.7381C14.3101 17.202 14.6861 17.5781 15.1501 17.5781Z" fill="#F92F60"/>
<path d="M17.85 14.7881H24.0659L23.8 16.5281H17.85C17.37 16.5281 16.98 16.1381 16.98 15.6581C16.98 15.1781 17.37 14.7881 17.85 14.7881Z" fill="#635994"/>
<path d="M14.33 16.748H15.97C16.16 16.748 16.32 16.898 16.32 17.098V18.158H13.98V17.098C13.98 16.908 14.14 16.748 14.33 16.748Z" fill="#635994"/>
<path d="M22.5401 16.068C22.7776 16.068 22.9701 15.8755 22.9701 15.638C22.9701 15.4005 22.7776 15.208 22.5401 15.208C22.3026 15.208 22.1101 15.4005 22.1101 15.638C22.1101 15.8755 22.3026 16.068 22.5401 16.068Z" fill="#321B41"/>
</svg>

<svg xmlns="http://www.w3.org/2000/svg" width="32" height="32" fill="none"><path fill="#635994" d="M12.991 26.168a.261.261 0 0 0-.522 0v2.39a.261.261 0 0 0 .522 0v-2.39ZM24.751 26.168a.261.261 0 0 0-.522 0v2.39a.261.261 0 0 0 .522 0v-2.39Z"/><path fill="#321B41" d="M24.427 5.41a.321.321 0 1 0-.634-.103l-.65 4.01a.321.321 0 1 0 .634.102l.65-4.01ZM6.142 23.72a.321.321 0 0 0-.283.577l3.81 1.87a.32.32 0 0 0 .141.032h1.61a.321.321 0 1 0 0-.642H9.885l-.341-.168-1.204-1.26-2.03-.327-.168-.082Z"/><path fill="#CA0B4A" d="M21.04 20.918v1.02l-2.477.518-2.533-.518v-1.02l2.533-.64 2.477.64ZM11.18 25.218l3.49-1.95v3.38h-3.11a.77.77 0 0 1-.77-.77c0-.27.15-.52.39-.66ZM26.04 25.218l-3.49-1.95v3.38h3.11c.42 0 .77-.34.77-.77a.77.77 0 0 0-.39-.66Z"/><path fill="#F92F60" d="M21.97 21.938h-6.83c-.73 0-1.28.66-1.15 1.38l.61 3.43c.08.45.48.78.94.78h6.16c.47 0 .87-.35.94-.82l.49-3.44c.1-.7-.45-1.33-1.16-1.33Z"/><path fill="#9B9B9B" d="M18.53 24.918c-1.41 0-2.56 1.15-2.56 2.56 0 1.41 1.15 2.56 2.56 2.56 1.41 0 2.56-1.15 2.56-2.56 0-1.42-1.14-2.56-2.56-2.56ZM23 28.538c0 .82.67 1.49 1.49 1.49s1.49-.67 1.49-1.49-.67-1.49-1.49-1.49-1.49.67-1.49 1.49ZM11.24 28.538c0-.82.67-1.49 1.49-1.49s1.49.67 1.49 1.49-.67 1.49-1.49 1.49-1.49-.67-1.49-1.49Z"/><path fill="#D3D3D3" d="M18.53 28.978a1.5 1.5 0 1 0 0-3 1.5 1.5 0 0 0 0 3ZM24.49 29.418a.88.88 0 1 0 0-1.76.88.88 0 0 0 0 1.76ZM13.61 28.538a.88.88 0 1 1-1.76 0 .88.88 0 0 1 1.76 0Z"/><path fill="#1C1C1C" d="M18.53 28.078a.6.6 0 1 0 0-1.2.6.6 0 0 0 0 1.2ZM24.49 29.018a.48.48 0 1 0 0-.96.48.48 0 0 0 0 .96ZM13.21 28.538a.48.48 0 1 1-.96 0 .48.48 0 0 1 .96 0Z"/><path fill="#E4B29A" d="m21.05 6.858.05 1.96-2 .06-.03-1.98 1.98-.04Z"/><path fill="#9B9B9B" d="m9.3 22.968 1.15-5.88c.21-1.05.77-1.44 1.51-1.49l4.45-.44h4.64s.78 3-.37 3l-7.42.01c-.22 0-.43.13-.51.34l-2.38 5.68-1.02-.24-.05-.98Z"/><path fill="#FF6723" d="M20.31 8.498c-1.25-.21-2.44.64-2.65 1.89l-1.16 4.78 4.08 3 1.62-7.02c.21-1.26-.64-2.44-1.89-2.65Z"/><path fill="#321B41" d="M15.41 15.048h-.52v1.1h.52v-1.1Z"/><path fill="#433B6B" d="M15.15 15.298a.6.6 0 1 0 0-1.2.6.6 0 0 0 0 1.2Z"/><path fill="#D6A089" d="M14.03 13.568c-.16.06-.23.24-.18.4l.7-.222.36-.558-.88.38Z"/><path fill="#EEBFAA" d="m21.39 10.148-.21 3.72c-.03.49-.43.88-.91.9l-4.22.04c-.29 0-.57-.04-.84-.13l-.13-.04-.58.25c-.15.06-.33.02-.42-.12a.298.298 0 0 1-.05-.15.33.33 0 0 1-.43-.18c-.07-.17.01-.36.18-.43l.07-.04 1.06-.78c.26-.12 1.11-.21 1.27-.21l3.08-.08c.05 0 .1-.05.1-.1l.16-2.76c.03-.51.47-.91.99-.88.51.03.91.47.88.99Z"/><path fill="#FF8101" d="M21.31 12.588c.09.01.17-.07.18-.16l.11-2.44c.03-.67-.49-1.24-1.16-1.27-.67-.03-1.24.49-1.27 1.16l-.11 2.34c-.01.13.09.23.22.24.54.04 1.44.09 2.03.13Z"/><path fill="#533566" d="m10.37 24.188-.54 1.1c-.06.11-.19.16-.3.1l-3.19-1.57c-.29-.14-.22-.57.1-.62l2.87-.23 1.06 1.22Z"/><path fill="#EEBFAA" d="M18.76 7.908c.69.1 1.84-.1 2.27-.88l.45-1.07.49-1.12c.12-.85-.48-1.63-1.33-1.75l-1.01-.14c-.85-.12-1.63.48-1.75 1.33l-.08.6c-.183.252-.33.38-.434.47-.1.089-.161.142-.176.24-.02.2.17.39.37.42a.185.185 0 0 0 .089-.003c-.118 1-.063 1.747 1.11 1.903Z"/><path fill="#fff" d="M18.15 5.218c-.06-.01-.1-.07-.09-.14v-.01c.04-.28.31-.41.54-.38.23.03.46.22.42.51v.01c-.01.07-.07.12-.13.11l-.74-.1Z"/><path fill="#7D4533" d="M18.06 5.208a.285.285 0 0 1 0-.13c.03-.21.18-.35.34-.33.16.02.27.21.24.41-.01.05-.02.09-.04.13l-.54-.08Z"/><path fill="#000" d="M18.16 5.218c-.02-.04-.03-.09-.02-.14.02-.12.1-.2.2-.19.09.01.15.12.14.24a.31.31 0 0 1-.06.13l-.26-.04Z"/><path fill="#fff" d="M18.283 4.958c.005-.039-.017-.073-.05-.078-.033-.004-.064.023-.069.061-.005.039.017.073.05.078.033.004.064-.023.07-.061Z"/><path fill="#990838" d="M18.605 6.204a.104.104 0 0 1 .049.139.568.568 0 0 1-.759.26.104.104 0 1 1 .09-.189.36.36 0 0 0 .48-.161.104.104 0 0 1 .14-.05Z"/><path fill="#A56953" d="M19.04 4.55a.11.11 0 0 1-.078-.032.908.908 0 0 0-.575-.217.111.111 0 0 1-.108-.114.101.101 0 0 1 .03-.083.1.1 0 0 1 .084-.026c.268.003.526.104.726.283a.112.112 0 0 1-.036.181.11.11 0 0 1-.043.009Z"/><path fill="#FFF9BA" d="M19.951 4.352a.438.438 0 0 0-.084-.317 2.454 2.454 0 0 0-.497-.117 2.944 2.944 0 0 1-.678-.162l-.781-.094c-.02-.01-.03-.01-.04-.01a.729.729 0 0 1-.58-.77.74.74 0 0 1 .82-.68c.12.01.24-.04.32-.13.16-.18.41-.28.67-.25.1.01.2.04.29.08.24.13.52.16.78.09.1-.02.2-.03.31-.02.13.02.26.07.36.14.15.11.33.17.51.18a1.801 1.801 0 0 1 .385.082c.72.201 1.308.741 1.164 1.824-.31 2.27-1.13 2.17-1.13 2.17.64.09.45.91-.03.84-.036-.004-.078-.006-.123-.008-.318-.014-.803-.036-.707-.762l.016-.129a.673.673 0 0 1-.34-.321.627.627 0 0 0-.068-1.149.301.301 0 0 0-.167-.077l-.1-.01a.357.357 0 0 1-.3-.4Z"/><path fill="#433B6B" d="m22.68 5.388.24-1.49c.11-.71.72-1.23 1.44-1.23.9 0 1.58.8 1.44 1.68l-.24 1.49a1.46 1.46 0 0 1-1.44 1.23c-.9 0-1.58-.8-1.44-1.68ZM23.45 8.028c-.72 0-1.32.52-1.44 1.23l-1.43 8.9h-4.267l-1.098-.79-1.23.79h-.735c-.29 0-.52.23-.52.52v1.73c0 .29.23.52.52.52h10.8c.29 0 .52-.23.52-.52v-1.73c0-.28-.23-.52-.52-.52h-.52l.266-1.65-.431-.866.707-.846.818-5.078c.14-.89-.55-1.69-1.44-1.69Z"/><path fill="#F92F60" d="M15.15 17.578a.84.84 0 1 0 0-1.68.84.84 0 0 0 0 1.68Z"/><path fill="#635994" d="M17.85 14.788h6.216l-.266 1.74h-5.95a.87.87 0 0 1 0-1.74ZM14.33 16.748h1.64c.19 0 .35.15.35.35v1.06h-2.34v-1.06c0-.19.16-.35.35-.35Z"/><path fill="#321B41" d="M22.54 16.068a.43.43 0 1 0 0-.86.43.43 0 0 0 0 .86Z"/></svg>
